imgs/star-sharp.svg

<svg width="14" height="14" viewBox="0 0 14 14" fill="none" xmlns="http://www.w3.org/2000/svg">
<path d="M6.99906 10.104L10.041 9.3327L11.3117 13.2494L6.99906 10.104ZM13.9991 5.04166H8.64512L6.99906 0L5.353 5.04166H0L4.33338 8.16635L2.68732 13.208L7.02069 10.0852L9.68731 8.16823L14 5.04354L13.9991 5.04166Z" fill="#FD3E72"/>
</svg>

<svg width="14" height="14" fill="none" xmlns="http://www.w3.org/2000/svg"><path d="M7 10.104l3.041-.771 1.27 3.916L7 10.104zm7-5.062H8.644L7 0 5.353 5.042H0l4.333 3.124-1.646 5.042 4.334-3.123 2.666-1.917L14 5.044v-.002z" fill="#FD3E72"/></svg>
